X:1
T:Title
%%score ( 1 2 ) ( 3 4 ) ( 5 6 ) { ( 7 9 10 ) | 8 }
L:1/8
Q:1/4=90
M:3/4
K:Bb
V:1 treble nm="Violin, Soprano"
V:2 treble 
V:3 bass nm="Strings 2, Staff-2"
V:4 bass 
V:5 treble nm="Strings 1, Staff-1"
V:6 treble 
V:7 bass nm="Choir Pad, Bass"
V:9 bass 
V:10 bass 
V:8 bass 
V:1
 F>D B,2 D2 | F2 B4 | d>c B2 D2 | =E2 F4 | FF d3 c | B2 A4 | GA B2 B2 | F2 D2 B,2 | F>D B,2 D2 | %9
w: By~John~S.~Smith,~harm.~Arthur~E.~Johnstone,~~1918 * * *|||||||||
 F2 B4 | d>c B2 D2 | =E2 F4 | FF d3 c | B2 A4 | GA B2 B2 | F2 D2 B,2 | [Bd][Bd] [Bd]2 [ce]2 | %17
w: ||||||||
 [df]2 [df]4 | [ce][Bd] [Ac]2 [Bd]2 | [ce]2 [ce]4 | [ce]2 [Bd]3 [Ac] | B2 A4 | GA B2 D2 | =E2 F4 | %24
w: |||||||
 F2 [FB]2 [FB]2 | BA [EG]2 [EG]2 | [DG]2 [Gc]2 [Ee][Fd] | cB B2 A2 | FF B3 c | [Fd][Be] [Bf]4 | %30
w: ||||||
 B[Bc] [Bd]3 [Ge] | [Ac]2 [FB]4- | [FB]4 z2 |] %33
w: |||
V:2
 x6 | x6 | x6 | x6 | x6 | x6 | x6 | x6 | x6 | x6 | x6 | x6 | x6 | x6 | x6 | x6 | x6 | x6 | x6 | %19
 x6 | x6 | x6 | x6 | x6 | x6 | F2 z2 z2 | x6 | G2 F4 | z2 F4 | x6 | x6 | x6 | x6 |] %33
V:3
 z6 | z6 | z6 | z6 | z6 | z6 | z6 | z6 | z6 | z6 | z6 | z6 | z6 | z6 | z6 | z6 | z6 | z6 | z6 | %19
 z6 | z6 | z6 | z6 | z6 | F,2 [D,B,]2 [B,,D]2 | [D,B,]2 [E,B,]2 [G,B,]2 | %26
 [G,=B,]2 [F,C]2 G,-[D,G,] | [E,E][=E,D] D2 C2 | F,[E,F,] [D,B,]3 [F,C] | [B,D][G,E] [D,F]4 | %30
 [G,D][G,=E] [F,F]3 [F,F] | [F,E]2 [B,,D]4- | [B,,D]4 z2 |] %33
V:4
 x6 | x6 | x6 | x6 | x6 | x6 | x6 | x6 | x6 | x6 | x6 | x6 | x6 | x6 | x6 | x6 | x6 | x6 | x6 | %19
 x6 | x6 | x6 | x6 | x6 | x6 | x6 | z2 z2 .C,2 | z2 F,4 | x6 | x6 | x6 | x6 | x6 |] %33
V:5
 F>D B,2 [B,D]2 | [CF]2 [DGB]4 | [A,DA]>C [B,DGB]2 [G,B,D]2 | [G,B,C=E]2 [A,CF]4 | %4
 [CEF]2 [DBd]3 [CFc] | [B,FB]2 [CEFA]4 | .G2 z2 z2 | F2 D2[K:bass] B,2 | [F,F]>D B,2 [F,B,D]2 | %9
 [F,CF]2 [B,DGB]4 | [A,DA]>C [B,DGB]2 [G,B,D]2 | [G,B,C=E]2 [A,CF]4 | [CEF]2 [DFd]3 [CFc] | %13
 [B,FB]2 [A,EFA]4 | .G2 z2 z2 | F2 D2 B,2 | [Bd]2 [Bd]2 [ce]2 | [df]2 [Fdf]4 | %18
 [ce][Bd] [Ac]2 [Bd]2 | [ce]2 [Fce]4 | [Ece]2 [DBd]3 [CFc] | [B,FB]2 [A,EFA]4 | .G2 z2 z2 | %23
 [B,C=E]2 [A,CF]4 | [A,CF]2 [B,FB]2 [DFB]2 | BA [EG]2 [B,EG]2 | [=B,DG]2 [CGc]2 [Gce][F=Bd] | %27
 [EGc][DB] [DB]2 [CA]2 | [A,CF]2 [B,FB]3 [CFc] | [DFd][EBe] [FBf]4 | %30
 [B,DB][C=EBc] [DFBd]3 [_EGBe] | [A,EFAc]2 [B,DFB]4- | [B,DFB]4 z2 |] %33
V:6
 x6 | x6 | x6 | x6 | x6 | x6 | [CF]-[CFA] [B,FB]2 [B,B]2 | x4[K:bass] x2 | x6 | x6 | x6 | x6 | x6 | %13
 x6 | [CF]-[CFA] [B,FB]2 [B,B]2 | x6 | x6 | x6 | F6- | F2 z2 z2 | x6 | x6 | %22
 [CF]-[CFA] [FB]2 [B,D]2 | x6 | x6 | [B,-F]2 B,2 z2 | x6 | z2 F4 | x6 | x6 | x6 | x6 | x6 |] %33
V:7
 F,>D, B,,2 F,2 | A,2 G,4 | ^F,,2 G,,4 | C,2 F,,2 F,2- | F,4- F,F, | F,6 | E,2 D,2 B,,2 | %7
 F,2 D,2 B,,2 | F,,>D,, B,,,2 B,,2 | A,,2 G,,4 | ^F,,2 G,,4 | C,2 F,,2 F,2 | A,,2 B,,3 F, | F,6 | %14
 E,2 D,2 B,,2 | F,2 D,2 B,,2 | D2 D2 E2 | F2 z2[K:bass] z2 | ED z2 D2 | E2 E4 | F,2 F,4 | F,2 F,4 | %22
 E,2 D,2 G,2 | z2 F,,4 | F,E, D,2 B,,2 | D,2 E,2 G,2 | F,2 E,2 C,D, | E,=E, F,4 | F,E, D,3 F, | %29
 B,B, B,4 | G,2 F,4 | F,,2 B,,4- | B,,4 z2 |] %33
V:8
 z2 z2 B,,2 | A,,2 G,,4 | z6 | C,,2 F,,,2 F,,2 | A,,2 B,,3 E, | D,2 C,2 F,,2 | E,,2 D,,2 z2 | z6 | %8
 z2 z2 B,,,2 | A,,,2 G,,,4 | ^F,,,2 G,,,4 | C,,2 F,,,2 F,,2 | G,,,2 A,,,3 E, | D,2 C,2 F,,2 | %14
 E,,2 D,,2 z2 | F,,2 D,,2 B,,,2 | B,2 B,2[K:treble] C2 | D2 z2 z2 | CB, C2 B,2 | %19
 C2 C2[K:bass] A,2 | A,,2 B,,3 E, | D,2 C,2 F,,2 | E,,2 D,,2 G,,2 | C,,2 z2 z2 | %24
 F,,E,, D,,2 B,,,2 | D,,2 E,,2 G,,2 | F,,2 F,,2 C,,D,, | E,,=E,, F,,4 | F,,E,, D,,3 F,, | %29
 B,,G, D,4 | G,,2 F,,4 | F,,,2 B,,,4- | B,,,4 z2 |] %33
V:9
 x6 | x6 | x6 | x6 | x6 | x6 | x6 | x6 | x6 | x6 | x6 | x6 | x6 | x6 | x6 | x6 | x6 | %17
 z2 D4[K:bass] | x6 | x6 | x6 | x6 | x6 | C,2 z2 F,,,2 | x6 | x6 | x6 | x6 | x6 | x6 | x6 | x6 | %32
 x6 |] %33
V:10
 x6 | x6 | x6 | x6 | x6 | x6 | x6 | x6 | x6 | x6 | x6 | x6 | x6 | x6 | x6 | x6 | x6 | %17
 z2 z2[K:bass] F,2- | F,4 z2 | x6 | x6 | x6 | x6 | x6 | x6 | x6 | x6 | x6 | x6 | x6 | x6 | x6 | %32
 x6 |] %33

